X: 21077
T: Just Let Me Fly My Drone
R: jig
M: 6/8
K: Dmajor
~F3 cd(A|A)FB AFD|~E3 GFG|Bcd cAG|
F2F cd(A|A)FB AFA|BEF GBd|1 ecA GFE:|2 eAc efg||
fBB af(e|e)cd cAF|~G3 Bcd|eAc efg|
fBb af(e|e)cd ecA|GE/F/G Bcd|eAa gfe|
fBB af(e|e)cd cAF|~E3 ~F3|GB/c/d ecA|
FBc dfb|aed cAF|~G3 ~A3|B/c/de cAG||

